X: 32093
T: Perfect Pitch, The
R: jig
M: 6/8
K: Dmajor
|:c2 c BAF|AFE- EEF|AcB AcB|
BBA Bc2|cBA FAF|E2E FAc|BAB- BA2:|
|:Bce ef2|eef aec|Af2 ef2|ef2 aec|
Acf ff2|eef aec|Ace fec|AB2 A3:|

